X:1011
T:John Naughton's
R:reel
H:Also played in Edor, #968
Z:id:hn-reel-1011
M:C|
L:1/8
K:Ddor
DEFG AD~D2 | FDAD FDDC | DEFG AGAB |1 cAGF EDCE :|2 cAGF ECC2 ||
|: ~d3c AGAc | dcde fage | ~d3c AGAB |1 cAGF ECC2 :|2 cAGF EDCE ||
P:variations
D2FG AD~D2 | FDAD FDDC | A,DFG A3B | cEGF EC~C2 |
D2FG AD~D2 | DFAG FDDC | A,DFG A3B | cEGF EC~C2 ||
Addc AFAc | d3e fagf | d3c AGAB | cAGc AGFE |
Dddc AFAc | dAde fagf | ~d3c AGAB | cAGc AGFE ||

